X:21
T:Lumire des hommes - G128-2
C:M. Wackenheim
M:C|
L:1/4
K:Em
B|B2AG|A2E2|GFGA|B4|A2B2|G2FE|E2D2|E4||
z2B,B,/B,/|DD2D|E2(3DEF|GGFE|FF3|G3E|AA/A/cc|B3|]
